X:1
T:Ave Maria (accompaniment for guitar)
T:Ave Maria
T:Arrangement by Luan Estévez Delgado
T:Franz Schubert
T:LuanED
T:LuanED
C:Franz Schubert
Z:LuanED
L:1/8
M:6/8
K:A
V:1 treble-8 nm="Chitarra classica" snm="Chit. cl."
V:1
 A,/E/A/c/A/E/ A,/E/A/c/A/E/ | A,/A/c/e/c/A/ A,/A/c/=g/c/A/ | A,/A/d/f/d/A/ A,/G/d/=f/d/G/ | %3
 A,/A/c/e/c/A/ A,/E/A/c/A/E/ |: A,/E/A/c/A/E/ F,/^D/A/c/A/D/ | E,/E/A/c/A/E/ E,/E/G/d/G/E/ | %6
 F,/F/A/c/A/F/ F,/F/A/c/A/F/ | F,/F/B/d/B/F/ E,/E/G/B/G/E/ | A,/E/A/c/A/E/ A,/E/A/c/A/E/ | %9
 A,/=F/A/c/A/F/ A,/^F/A/c/A/F/ | G,/F/A/c/A/F/ G,/F/G/=c/G/F/ | =F,/G/B/d/B/G/ F,/G/B/d/B/G/ | %12
 F,/F/A/c/A/F/ F,/^D/A/c/A/D/ | G,/E/G/B/G/E/ C/F/_B/e/B/F/ | B,/G/B/e/B/G/ B,/A/B/^d/B/A/ | %15
 E/G/B/e/B/G/ E/G/B/e/B/G/ | E,/G/B/e/B/G/ E,/G/B/e/B/G/ | E/A/c/e/c/A/ E/A/c/e/c/A/ | %18
 E,/G/B/e/B/G/ E,/G/B/e/B/G/ | F,/F/A/c/A/F/ F,/C/F/A/F/C/ | E,/E/G/B/G/E/ C/=F/G/c/G/F/ | %21
 B,/F/B/d/B/F/ B,/F/B/d/B/F/ | F,/^D/F/B/F/D/ F,/=D/A/c/A/D/ | E,/E/G/B/G/E/ E,/E/G/B/G/E/ | %24
 A,/E/A/c/A/E/ F,/^D/A/c/A/D/ | E,/E/A/c/A/E/ E,/E/G/B/G/E/ | A,/E/A/c/A/E/ A,/E/A/c/A/E/ | %27
 A,/A/c/e/c/A/ A,/A/c/=g/c/A/ | A,/A/d/f/d/A/ A,/G/d/=f/d/G/ | A,/A/c/e/c/A/ A,/E/A/c/A/E/ | %30
 A,/E/A/c/A/E/ A,/A/c/e/c/A/ | A,/E/A/c/A/E/ A,/E/A/c/A/E/ | [A,EAc]3- [A,EAc]- [A,EAc]2- | %33
 [A,EAc]2 z4 | z6 | z6 | z6 | z6 | z6 | z6 | z6 | z6 | z6 | z6 | z6 | z6 | z6 | z6 | z6 | z6 | z6 | %51
 z6 | z6 | z6 | z6 | z6 | z6 | z6 | z6 | z6 | z6 | z6 | z6 | z6 | z6 | z6 | z6 | z6 | z6 | z6 | %70
 z6 | z6 |] %72

